X:70
T:Flailman - Hard
%%VWML:SBG-1-2-603-0
F:http://www.vwml.org/record/SBG/1/2/603
Z:Original Sibelius transcriptions by M. & S. Graebe
M:4/4
I:linebreak $
K:G
V:1 treble nm="P1"
V:1
 B | B B/d/ B G/A/ | B2 B B | B d/c/ B G/A/ | B2 z G | G G/G/ E F/G/ |$ D2 G A | B/c/ d B A | %8
 G2 z A | A A B B | c3 c | B c/c/ d c/B/ |$ A2 z E/E/ | E E E F/G/ | %14
 !fermata!D !fermata!D !fermata!D G/A/ | B/c/ d c/B/ A | G2 z x | %17

